Sources/FrostedUI/Resources/Icons.xcassets/bannerPhoto16.imageset/banner-photo-16.svg

<svg width="16" height="16" viewBox="0 0 16 16" fill="none" xmlns="http://www.w3.org/2000/svg" data-fui-icon="true">
  <path
    d="M12.0724 2.63196C13.8924 2.63196 15.3683 4.10783 15.3683 5.92786V10.0001C15.3683 11.8202 13.8924 13.296 12.0724 13.296H3.92786C2.10783 13.296 0.631958 11.8202 0.631958 10.0001V5.92786C0.631958 4.10783 2.10783 2.63196 3.92786 2.63196H12.0724ZM3.92786 4.13196C2.93625 4.13196 2.13196 4.93625 2.13196 5.92786V7.93079L3.16223 6.75696C3.55423 6.31061 4.11993 6.05481 4.71399 6.05481C5.21224 6.05489 5.6913 6.23483 6.06458 6.55774C6.11797 6.60393 6.16908 6.65328 6.2179 6.7052L10.9191 11.7091L11.0011 11.796H12.0724C13.064 11.796 13.8683 10.9917 13.8683 10.0001V5.92786C13.8683 4.93625 13.064 4.13196 12.0724 4.13196H3.92786ZM11.2501 5.47766C11.9405 5.47766 12.5001 6.03731 12.5001 6.72766C12.5001 7.41796 11.9404 7.97766 11.2501 7.97766C10.5598 7.97766 10.0002 7.41796 10.0001 6.72766C10.0001 6.03731 10.5598 5.47766 11.2501 5.47766Z"
    fill="currentColor"
  />
</svg>

<svg xmlns="http://www.w3.org/2000/svg" width="16" height="16" fill="none" data-fui-icon="true" viewBox="0 0 16 16"><path fill="currentColor" d="M12.072 2.632a3.296 3.296 0 0 1 3.296 3.296V10a3.296 3.296 0 0 1-3.296 3.296H3.928A3.296 3.296 0 0 1 .632 10V5.928a3.296 3.296 0 0 1 3.296-3.296zm-8.144 1.5c-.992 0-1.796.804-1.796 1.796V7.93l1.03-1.174a2.065 2.065 0 0 1 3.056-.052l4.701 5.004.082.087h1.071c.992 0 1.796-.804 1.796-1.796V5.928c0-.992-.804-1.796-1.796-1.796zm7.322 1.346a1.25 1.25 0 1 1 0 2.5 1.25 1.25 0 0 1 0-2.5"/></svg>
